svgs/thin/ellipsis-stroke.svg

<svg xmlns="http://www.w3.org/2000/svg" viewBox="0 0 512 512"><!-- Font Awesome Pro 6.0.0-alpha2 by @fontawesome - https://fontawesome.com License - https://fontawesome.com/license (Commercial License) --><path d="M448 208C474.467 208 496 229.533 496 256S474.467 304 448 304S400 282.467 400 256S421.533 208 448 208M256 208C282.467 208 304 229.533 304 256S282.467 304 256 304S208 282.467 208 256S229.533 208 256 208M64 208C90.467 208 112 229.533 112 256S90.467 304 64 304S16 282.467 16 256S37.533 208 64 208M448 192C412.611 192 384 220.625 384 256S412.611 320 448 320S512 291.375 512 256S483.389 192 448 192L448 192ZM256 192C220.611 192 192 220.625 192 256S220.611 320 256 320S320 291.375 320 256S291.389 192 256 192L256 192ZM64 192C28.611 192 0 220.625 0 256S28.611 320 64 320S128 291.375 128 256S99.389 192 64 192L64 192Z"/></svg>

<svg xmlns="http://www.w3.org/2000/svg" viewBox="0 0 512 512"><!--! Font Awesome Pro 6.0.0-alpha3 by @fontawesome - https://fontawesome.com License - https://fontawesome.com/license (Commercial License) --><path d="M448 208c26.47 0 48 21.53 48 48S474.5 304 448 304S400 282.5 400 256S421.5 208 448 208zM256 208c26.47 0 48 21.53 48 48S282.5 304 256 304S208 282.5 208 256S229.5 208 256 208zM64 208c26.47 0 48 21.53 48 48S90.47 304 64 304S16 282.5 16 256S37.53 208 64 208zM448 192c-35.39 0-64 28.62-64 64s28.61 64 64 64s64-28.62 64-64S483.4 192 448 192zM256 192C220.6 192 192 220.6 192 256s28.61 64 64 64s64-28.62 64-64S291.4 192 256 192zM64 192C28.61 192 0 220.6 0 256s28.61 64 64 64s64-28.62 64-64S99.39 192 64 192z"/></svg>
